public/images/flags/UK.svg

<svg width="21" height="15" viewBox="0 0 21 15" fill="none" xmlns="http://www.w3.org/2000/svg">
<path d="M20.929 13.5H18.5V15H2.5V13.5H0.0709991C0.0259356 13.3371 0.002073 13.169 0 13V2C0.002073 1.83097 0.0259356 1.66292 0.0709991 1.5H2.5V0H18.5V1.5H20.929C20.9741 1.66292 20.9979 1.83097 21 2V13C20.9979 13.169 20.9741 13.3371 20.929 13.5Z" fill="#43458B"/>
<path d="M17.659 0H19C19.5304 0 20.0391 0.210712 20.4142 0.585785C20.7893 0.960858 21 1.46957 21 2V2.454L17.629 5H21V10H17.712L21 12.483V13C21 13.5304 20.7893 14.0391 20.4142 14.4142C20.0391 14.7893 19.5304 15 19 15H17.742L13 11.419V15H8V11.419L3.258 15H2C1.46957 15 0.960858 14.7893 0.585785 14.4142C0.210712 14.0391 0 13.5304 0 13V12.483L3.288 10H0V5H3.371L0 2.454V2C0 1.46957 0.210712 0.960858 0.585785 0.585785C0.960858 0.210712 1.46957 0 2 0H3.341L8 3.519V0H13V3.519L17.659 0Z" fill="#F6F9FC"/>
<path d="M12 9V15H9V9H0V6H9V0H12V6H21V9H12ZM12.5 5.5V5.282L19.429 0.0489998C19.8808 0.149981 20.2832 0.405299 20.567 0.771L14.306 5.5H12.5ZM0.209 1.126C0.401203 0.734604 0.715761 0.416537 1.105 0.220001L8.095 5.5H6.001L0.209 1.126ZM8.5 9.5V9.718L1.571 14.951C1.11924 14.85 0.716811 14.5947 0.432999 14.229L6.694 9.5H8.5ZM20.791 13.874C20.5991 14.2656 20.2845 14.5838 19.895 14.78L12.905 9.5H14.999L20.791 13.874Z" fill="#E25950"/>
</svg>

<svg width="21" height="15" fill="none" xmlns="http://www.w3.org/2000/svg"><path d="M20.929 13.5H18.5V15h-16v-1.5H.071A1.966 1.966 0 0 1 0 13V2c.002-.169.026-.337.071-.5H2.5V0h16v1.5h2.429c.045.163.069.331.071.5v11a1.966 1.966 0 0 1-.071.5z" fill="#43458B"/><path d="M17.659 0H19a2 2 0 0 1 2 2v.454L17.629 5H21v5h-3.288L21 12.483V13a2 2 0 0 1-2 2h-1.258L13 11.419V15H8v-3.581L3.258 15H2a2 2 0 0 1-2-2v-.517L3.288 10H0V5h3.371L0 2.454V2a2 2 0 0 1 2-2h1.341L8 3.519V0h5v3.519L17.659 0z" fill="#F6F9FC"/><path d="M12 9v6H9V9H0V6h9V0h3v6h9v3h-9zm.5-3.5v-.218L19.429.049a1.99 1.99 0 0 1 1.138.722L14.306 5.5H12.5zM.209 1.126C.401.735.716.416 1.105.22l6.99 5.28H6.001L.209 1.126zM8.5 9.5v.218l-6.929 5.233a1.99 1.99 0 0 1-1.138-.722L6.694 9.5H8.5zm12.291 4.374a2 2 0 0 1-.896.906l-6.99-5.28h2.094l5.792 4.374z" fill="#E25950"/></svg>
